gtk-icons/Papirus-GTK/48x48/apps/bluefish.svg

<?xml version="1.0" encoding="UTF-8" standalone="no"?>
<!-- Created with Inkscape (http://www.inkscape.org/) -->

<svg
   xmlns:dc="http://purl.org/dc/elements/1.1/"
   xmlns:cc="http://creativecommons.org/ns#"
   xmlns:rdf="http://www.w3.org/1999/02/22-rdf-syntax-ns#"
   xmlns:svg="http://www.w3.org/2000/svg"
   xmlns="http://www.w3.org/2000/svg"
   xmlns:xlink="http://www.w3.org/1999/xlink"
   xmlns:sodipodi="http://sodipodi.sourceforge.net/DTD/sodipodi-0.dtd"
   xmlns:inkscape="http://www.inkscape.org/namespaces/inkscape"
   id="svg2817"
   height="48"
   width="48"
   version="1.0"
   inkscape:version="0.91 r13725"
   sodipodi:docname="bluefish.svg">
  <sodipodi:namedview
     pagecolor="#ffffff"
     bordercolor="#666666"
     borderopacity="1"
     objecttolerance="10"
     gridtolerance="10"
     guidetolerance="10"
     inkscape:pageopacity="0"
     inkscape:pageshadow="2"
     inkscape:window-width="1600"
     inkscape:window-height="847"
     id="namedview17"
     showgrid="false"
     showguides="false"
     inkscape:zoom="1"
     inkscape:cx="19.706962"
     inkscape:cy="24"
     inkscape:window-x="0"
     inkscape:window-y="29"
     inkscape:window-maximized="1"
     inkscape:current-layer="svg2817" />
  <metadata
     id="metadata57">
    <rdf:RDF>
      <cc:Work
         rdf:about="">
        <dc:format>image/svg+xml</dc:format>
        <dc:type
           rdf:resource="http://purl.org/dc/dcmitype/StillImage" />
        <dc:title></dc:title>
      </cc:Work>
    </rdf:RDF>
  </metadata>
  <defs
     id="defs2819">
    <linearGradient
       inkscape:collect="always"
       id="linearGradient4431">
      <stop
         style="stop-color:#000000;stop-opacity:1;"
         offset="0"
         id="stop4433" />
      <stop
         style="stop-color:#000000;stop-opacity:0;"
         offset="1"
         id="stop4435" />
    </linearGradient>
    <linearGradient
       inkscape:collect="always"
       xlink:href="#linearGradient4431"
       id="linearGradient4437"
       x1="20.912405"
       y1="25.986214"
       x2="20.912405"
       y2="16.134949"
       gradientUnits="userSpaceOnUse" />
  </defs>
  <g
     id="g4186"
     transform="matrix(0.08940723,0,0,0.10722878,3.9785076,-1.9592277)">
    <g
       id="g4146">
      <path
         d="m 17.771484,16.005859 c -3.984097,0.114658 -8.2019121,1.763749 -11.8320309,6.257813 -0.6953213,0.861737 -1.9257359,2.415536 -1.9179687,3.785156 0.0076,1.339693 1.2223463,2.82539 1.9179687,3.6875 8.9356769,11.062311 21.4319299,4.881107 25.2441409,1.027344 0.790039,-0.798865 2.206145,-1.132646 3.234375,-0.679688 l 8.398437,3.69336 c 1.028141,0.452064 1.470111,-0.0044 0.988282,-1.019532 l -3.775391,-6.708984 3.775391,-6.80664 c 0.481829,-1.015113 0.03986,-1.471596 -0.988282,-1.019532 l -8.398437,3.69336 c -1.02823,0.452958 -2.444336,0.119177 -3.234375,-0.679688 -2.263501,-2.288171 -7.589198,-5.398045 -13.41211,-5.230469 z"
         transform="matrix(11.190881,0,0,11.190881,-44.763156,-48.865233)"
         id="path4148"
         inkscape:connector-curvature="0"
         sodipodi:nodetypes="scsccccccccccs"
         style="fill:#608ab5;fill-opacity:1" />
    </g>
    <g
       id="g4150" />
    <g
       id="g4152" />
    <g
       id="g4154" />
    <g
       id="g4156" />
    <g
       id="g4158" />
    <g
       id="g4160" />
    <g
       id="g4162" />
    <g
       id="g4164" />
    <g
       id="g4166" />
    <g
       id="g4168" />
    <g
       id="g4170" />
    <g
       id="g4172" />
    <g
       id="g4174" />
    <g
       id="g4176" />
    <g
       id="g4178" />
  </g>
  <g
     transform="matrix(0.08940723,0,0,0.10722878,3.9785076,-1.9592277)"
     id="g4395"
     style="fill:#000000;fill-opacity:1;opacity:0.1">
    <g
       id="g4397"
       style="fill:#000000;fill-opacity:1">
      <path
         style="fill:url(#linearGradient4437);fill-opacity:1"
         sodipodi:nodetypes="scccccccs"
         inkscape:connector-curvature="0"
         id="path4399"
         transform="matrix(11.190881,0,0,11.190881,-44.763156,-48.865233)"
         d="m 17.771484,16.005859 c -3.984097,0.114658 -8.2019121,1.763749 -11.8320309,6.257813 -0.6953213,0.861737 -1.9257359,2.415536 -1.9179687,3.785156 l 36.0078126,0 3.775391,-6.80664 c 0.481829,-1.015113 0.03986,-1.471596 -0.988282,-1.019532 l -8.398437,3.69336 c -1.02823,0.452958 -2.444336,0.119177 -3.234375,-0.679688 -2.263501,-2.288171 -7.589198,-5.398045 -13.41211,-5.230469 z" />
    </g>
    <g
       id="g4401"
       style="fill:#000000;fill-opacity:1" />
    <g
       id="g4403"
       style="fill:#000000;fill-opacity:1" />
    <g
       id="g4405"
       style="fill:#000000;fill-opacity:1" />
    <g
       id="g4407"
       style="fill:#000000;fill-opacity:1" />
    <g
       id="g4409"
       style="fill:#000000;fill-opacity:1" />
    <g
       id="g4411"
       style="fill:#000000;fill-opacity:1" />
    <g
       id="g4413"
       style="fill:#000000;fill-opacity:1" />
    <g
       id="g4415"
       style="fill:#000000;fill-opacity:1" />
    <g
       id="g4417"
       style="fill:#000000;fill-opacity:1" />
    <g
       id="g4419"
       style="fill:#000000;fill-opacity:1" />
    <g
       id="g4421"
       style="fill:#000000;fill-opacity:1" />
    <g
       id="g4423"
       style="fill:#000000;fill-opacity:1" />
    <g
       id="g4425"
       style="fill:#000000;fill-opacity:1" />
    <g
       id="g4427"
       style="fill:#000000;fill-opacity:1" />
    <g
       id="g4429"
       style="fill:#000000;fill-opacity:1" />
  </g>
  <circle
     r="2"
     cy="21"
     cx="12"
     id="circle4246"
     style="opacity:0.2;fill:#000000;fill-opacity:1" />
  <circle
     style="opacity:1;fill:#ffffff;fill-opacity:1"
     id="path4244"
     cx="12"
     cy="20"
     r="2" />
  <g
     transform="matrix(0.08940723,0,0,0.10722878,3.9785076,-1.9592277)"
     id="g4248"
     style="fill:#ffffff;fill-opacity:1">
    <g
       id="g4250"
       style="fill:#ffffff;fill-opacity:1">
      <path
         style="fill:#ffffff;fill-opacity:1;opacity:0.2"
         d="M 17.757812 12.007812 C 13.771541 12.1454 9.5520215 14.124771 5.9199219 19.517578 C 5.2242212 20.551649 3.9922286 22.415071 4 24.058594 C 4.0007281 24.212515 4.0216124 24.369068 4.0429688 24.525391 C 4.2545831 23.02619 5.2986382 21.441038 5.9199219 20.517578 C 9.5520215 15.124771 13.771541 13.1454 17.757812 13.007812 C 23.583902 12.806724 28.912998 16.539386 31.177734 19.285156 C 31.968204 20.243782 33.385271 20.643152 34.414062 20.099609 L 42.816406 15.667969 C 43.344013 15.389744 43.713243 15.40192 43.886719 15.640625 C 44.208672 14.606049 43.769239 14.165508 42.816406 14.667969 L 34.414062 19.099609 C 33.385271 19.643152 31.968204 19.243782 31.177734 18.285156 C 28.912998 15.539386 23.583902 11.806724 17.757812 12.007812 z M 40.259766 24.554688 L 40.027344 25.058594 L 43.804688 33.109375 C 43.840346 33.199476 43.861037 33.278733 43.886719 33.361328 C 44.052418 33.134959 44.039941 32.703811 43.804688 32.109375 L 40.259766 24.554688 z "
         transform="matrix(11.184778,0,0,9.3258545,-44.498723,18.271472)"
         id="path4252" />
    </g>
    <g
       id="g4254"
       style="fill:#ffffff;fill-opacity:1" />
    <g
       id="g4256"
       style="fill:#ffffff;fill-opacity:1" />
    <g
       id="g4258"
       style="fill:#ffffff;fill-opacity:1" />
    <g
       id="g4260"
       style="fill:#ffffff;fill-opacity:1" />
    <g
       id="g4262"
       style="fill:#ffffff;fill-opacity:1" />
    <g
       id="g4264"
       style="fill:#ffffff;fill-opacity:1" />
    <g
       id="g4266"
       style="fill:#ffffff;fill-opacity:1" />
    <g
       id="g4268"
       style="fill:#ffffff;fill-opacity:1" />
    <g
       id="g4270"
       style="fill:#ffffff;fill-opacity:1" />
    <g
       id="g4272"
       style="fill:#ffffff;fill-opacity:1" />
    <g
       id="g4274"
       style="fill:#ffffff;fill-opacity:1" />
    <g
       id="g4276"
       style="fill:#ffffff;fill-opacity:1" />
    <g
       id="g4279"
       style="fill:#ffffff;fill-opacity:1" />
    <g
       id="g4281"
       style="fill:#ffffff;fill-opacity:1" />
    <g
       id="g4283"
       style="fill:#ffffff;fill-opacity:1" />
  </g>
  <g
     style="fill:#898989;fill-opacity:1"
     id="g4285"
     transform="matrix(0.08940723,0,0,0.10722878,3.9785076,-0.95922726)">
    <g
       style="fill:#898989;fill-opacity:1"
       id="g4287" />
    <g
       style="fill:#898989;fill-opacity:1"
       id="g4291" />
    <g
       style="fill:#898989;fill-opacity:1"
       id="g4293" />
    <g
       style="fill:#898989;fill-opacity:1"
       id="g4295" />
    <g
       style="fill:#898989;fill-opacity:1"
       id="g4297" />
    <g
       style="fill:#898989;fill-opacity:1"
       id="g4299" />
    <g
       style="fill:#898989;fill-opacity:1"
       id="g4301" />
    <g
       style="fill:#898989;fill-opacity:1"
       id="g4303" />
    <g
       style="fill:#898989;fill-opacity:1"
       id="g4305" />
    <g
       style="fill:#898989;fill-opacity:1"
       id="g4307" />
    <g
       style="fill:#898989;fill-opacity:1"
       id="g4309" />
    <g
       style="fill:#898989;fill-opacity:1"
       id="g4311" />
    <g
       style="fill:#898989;fill-opacity:1"
       id="g4313" />
    <g
       style="fill:#898989;fill-opacity:1"
       id="g4315" />
    <g
       style="fill:#898989;fill-opacity:1"
       id="g4317" />
    <g
       style="fill:#898989;fill-opacity:1"
       id="g4319" />
  </g>
  <g
     transform="matrix(0.08940723,0,0,0.10722878,3.9785076,-1.9592277)"
     id="g4322"
     style="fill:#000000;fill-opacity:1">
    <g
       id="g4324"
       style="fill:#000000;fill-opacity:1">
      <path
         style="fill:#000000;fill-opacity:1;opacity:0.3"
         d="M 43.886719 14.640625 C 43.861083 14.723004 43.840243 14.800785 43.804688 14.890625 L 40.027344 23.058594 L 40.259766 23.554688 L 43.804688 15.890625 C 44.039521 15.297262 44.051477 14.867336 43.886719 14.640625 z M 4.0429688 23.525391 C 4.0176217 23.704964 3.9991687 23.882791 4 24.058594 C 4.0076041 25.666205 5.2239199 27.449856 5.9199219 28.484375 C 14.860475 41.758977 27.363443 34.341253 31.177734 29.716797 C 31.968204 28.758171 33.385271 28.356848 34.414062 28.900391 L 42.816406 33.333984 C 43.76902 33.83633 44.208244 33.395407 43.886719 32.361328 C 43.71286 32.598845 43.343117 32.611737 42.816406 32.333984 L 34.414062 27.900391 C 33.385271 27.356848 31.968204 27.758171 31.177734 28.716797 C 27.363443 33.341253 14.860475 40.758977 5.9199219 27.484375 C 5.2905588 26.548907 4.2446662 25.001762 4.0429688 23.525391 z "
         transform="matrix(11.184778,0,0,9.3258545,-44.498723,18.271472)"
         id="path4326" />
    </g>
    <g
       id="g4328"
       style="fill:#000000;fill-opacity:1" />
    <g
       id="g4330"
       style="fill:#000000;fill-opacity:1" />
    <g
       id="g4332"
       style="fill:#000000;fill-opacity:1" />
    <g
       id="g4334"
       style="fill:#000000;fill-opacity:1" />
    <g
       id="g4336"
       style="fill:#000000;fill-opacity:1" />
    <g
       id="g4338"
       style="fill:#000000;fill-opacity:1" />
    <g
       id="g4340"
       style="fill:#000000;fill-opacity:1" />
    <g
       id="g4342"
       style="fill:#000000;fill-opacity:1" />
    <g
       id="g4344"
       style="fill:#000000;fill-opacity:1" />
    <g
       id="g4346"
       style="fill:#000000;fill-opacity:1" />
    <g
       id="g4348"
       style="fill:#000000;fill-opacity:1" />
    <g
       id="g4350"
       style="fill:#000000;fill-opacity:1" />
    <g
       id="g4352"
       style="fill:#000000;fill-opacity:1" />
    <g
       id="g4354"
       style="fill:#000000;fill-opacity:1" />
    <g
       id="g4356"
       style="fill:#000000;fill-opacity:1" />
  </g>
  <g
     style="fill:#7a7a7a;fill-opacity:1"
     id="g4358"
     transform="matrix(0.08940723,0,0,0.10722878,3.9785076,-2.9592273)">
    <g
       style="fill:#7a7a7a;fill-opacity:1"
       id="g4360" />
    <g
       style="fill:#7a7a7a;fill-opacity:1"
       id="g4364" />
    <g
       style="fill:#7a7a7a;fill-opacity:1"
       id="g4366" />
    <g
       style="fill:#7a7a7a;fill-opacity:1"
       id="g4368" />
    <g
       style="fill:#7a7a7a;fill-opacity:1"
       id="g4370" />
    <g
       style="fill:#7a7a7a;fill-opacity:1"
       id="g4372" />
    <g
       style="fill:#7a7a7a;fill-opacity:1"
       id="g4374" />
    <g
       style="fill:#7a7a7a;fill-opacity:1"
       id="g4376" />
    <g
       style="fill:#7a7a7a;fill-opacity:1"
       id="g4378" />
    <g
       style="fill:#7a7a7a;fill-opacity:1"
       id="g4380" />
    <g
       style="fill:#7a7a7a;fill-opacity:1"
       id="g4382" />
    <g
       style="fill:#7a7a7a;fill-opacity:1"
       id="g4384" />
    <g
       style="fill:#7a7a7a;fill-opacity:1"
       id="g4386" />
    <g
       style="fill:#7a7a7a;fill-opacity:1"
       id="g4388" />
    <g
       style="fill:#7a7a7a;fill-opacity:1"
       id="g4390" />
    <g
       style="fill:#7a7a7a;fill-opacity:1"
       id="g4392" />
  </g>
</svg>

<?xml version="1.0" encoding="UTF-8" standalone="no"?>
<!-- Created with Inkscape (http://www.inkscape.org/) -->
<svg id="svg2817" xmlns:rdf="http://www.w3.org/1999/02/22-rdf-syntax-ns#" xmlns="http://www.w3.org/2000/svg" height="48" width="48" version="1.0" xmlns:cc="http://creativecommons.org/ns#" xmlns:xlink="http://www.w3.org/1999/xlink" xmlns:dc="http://purl.org/dc/elements/1.1/">
 <metadata id="metadata57">
  <rdf:RDF>
   <cc:Work rdf:about="">
    <dc:format>image/svg+xml</dc:format>
    <dc:type rdf:resource="http://purl.org/dc/dcmitype/StillImage"/>
    <dc:title/>
   </cc:Work>
  </rdf:RDF>
 </metadata>
 <defs id="defs2819">
  <linearGradient id="linearGradient4437" y2="16.135" gradientUnits="userSpaceOnUse" x2="20.912" y1="25.986" x1="20.912">
   <stop id="stop4433" offset="0"/>
   <stop id="stop4435" stop-opacity="0" offset="1"/>
  </linearGradient>
 </defs>
 <g id="g4186" transform="matrix(.089407 0 0 .10723 3.9785 -1.9592)">
  <g id="g4146">
   <path id="path4148" d="m17.771 16.006c-3.9841 0.11466-8.2019 1.7637-11.832 6.2578-0.69532 0.86174-1.9257 2.4155-1.918 3.7852 0.0076 1.3397 1.2223 2.8254 1.918 3.6875 8.9357 11.062 21.432 4.8811 25.244 1.0273 0.79004-0.79886 2.2061-1.1326 3.2344-0.67969l8.3984 3.6934c1.0281 0.45206 1.4701-0.0044 0.98828-1.0195l-3.7754-6.709 3.7754-6.8066c0.48183-1.0151 0.03986-1.4716-0.98828-1.0195l-8.3984 3.6934c-1.0282 0.45296-2.4443 0.11918-3.2344-0.67969-2.2635-2.2882-7.5892-5.398-13.412-5.2305z" transform="matrix(11.191 0 0 11.191 -44.763 -48.865)" fill="#608ab5"/>
  </g>
 </g>
 <g id="g4395" opacity=".1" transform="matrix(.089407 0 0 .10723 3.9785 -1.9592)">
  <g id="g4397">
   <path id="path4399" d="m17.771 16.006c-3.9841 0.11466-8.2019 1.7637-11.832 6.2578-0.69532 0.86174-1.9257 2.4155-1.918 3.7852h36.008l3.7754-6.8066c0.48183-1.0151 0.03986-1.4716-0.98828-1.0195l-8.3984 3.6934c-1.0282 0.45296-2.4443 0.11918-3.2344-0.67969-2.2635-2.2882-7.5892-5.398-13.412-5.2305z" transform="matrix(11.191 0 0 11.191 -44.763 -48.865)" fill="url(#linearGradient4437)"/>
  </g>
 </g>
 <circle id="circle4246" opacity=".2" cy="21" cx="12" r="2"/>
 <circle id="path4244" cx="12" cy="20" r="2" fill="#fff"/>
 <g id="g4248" fill="#fff" transform="matrix(.089407 0 0 .10723 3.9785 -1.9592)">
  <g id="g4250" fill="#fff">
   <path id="path4252" opacity=".2" d="m17.758 12.008c-3.986 0.137-8.206 2.117-11.838 7.51-0.6958 1.034-1.9278 2.897-1.92 4.541 0.0007 0.154 0.0216 0.31 0.043 0.466 0.2116-1.499 1.2556-3.084 1.8769-4.007 3.6321-5.393 7.8521-7.373 11.838-7.51 5.826-0.201 11.155 3.531 13.42 6.277 0.79 0.959 2.207 1.358 3.236 0.815l8.402-4.432c0.528-0.278 0.897-0.266 1.071-0.027 0.322-1.035-0.118-1.475-1.071-0.973l-8.402 4.432c-1.029 0.543-2.446 0.144-3.236-0.815-2.265-2.746-7.594-6.478-13.42-6.277zm22.502 12.547l-0.233 0.504 3.778 8.05c0.035 0.09 0.056 0.17 0.082 0.252 0.165-0.226 0.153-0.657-0.082-1.252l-3.545-7.554z" transform="matrix(11.185 0 0 9.3259 -44.499 18.271)" fill="#fff"/>
  </g>
 </g>
 <g id="g4285" fill="#898989" transform="matrix(.089407 0 0 .10723 3.9785 -.95923)"></g>
 <g id="g4322" transform="matrix(.089407 0 0 .10723 3.9785 -1.9592)">
  <g id="g4324">
   <path id="path4326" opacity=".3" d="m43.887 14.641c-0.026 0.082-0.047 0.16-0.082 0.25l-3.778 8.168 0.233 0.496 3.545-7.664c0.235-0.594 0.246-1.024 0.082-1.25zm-39.844 8.884c-0.0254 0.18-0.0438 0.358-0.043 0.534 0.0076 1.607 1.2239 3.391 1.9199 4.425 8.9401 13.275 21.443 5.857 25.258 1.233 0.79-0.959 2.207-1.36 3.236-0.817l8.402 4.434c0.953 0.502 1.392 0.061 1.071-0.973-0.174 0.238-0.544 0.251-1.071-0.027l-8.402-4.434c-1.029-0.543-2.446-0.142-3.236 0.817-3.815 4.624-16.318 12.042-25.258-1.233-0.6294-0.935-1.6753-2.482-1.877-3.959z" transform="matrix(11.185 0 0 9.3259 -44.499 18.271)"/>
  </g>
 </g>
 <g id="g4358" fill="#7a7a7a" transform="matrix(.089407 0 0 .10723 3.9785 -2.9592)"></g>
</svg>
